X: 16
T: Sonate par Fr. Chopin. Finale.	 Op. 4
C: Fryderyk Chopin
%%abc-version 2.0
%%abcx-abcm2ps-target-version 5.9.1 (29 Sep 2008)
%%abc-creator hum2abc beta
%%abcx-conversion-date 2021/10/03 11:23:41
%%abc-edited-by Wojciech Jakubiak-Danek
%%abc-edited-by Zofia Niedbalska
%%abcx-initial-encoding-date 2019-10-14
%%humdrum-veritas 2277431874
%%humdrum-veritas-data 3430655991
%%linebreak <none>
%%barnumbers 0
L: 1/8
M: C|
N: Derived from 004-1-HAc-004.krn
P: Grande Sonate pour le Pianoforte
Q: "Presto. [half] = 132." 1/2=132
%%staves {1 2}
V: 1 clef=treble
V: 2 clef=bass
K: Eb
[V:1] z8 | 
[V:2] [C,4C,,4].[C,2C,,2].[C,2C,,2] | 
[V:1] z DFA (5:4:5=Bdfa=b | 
[V:2] !wedge![C,2C,,2]z2[D4A,4F,4C,4] | 
[V:1] !accent!c'2c2z2CE | 
[V:2] !arpeggio![C2G,2E,2C,2]z2[C,2C,,2][C,2C,,2] | 
[V:1] ^F=Ace (5:4:5^f=ac'e'^f' | 
[V:2] [C,2C,,2]z2!arpeggio!E2D2- & x4!arpeggio![=A,4C,4] | 
[V:1] !accent!g'2g2!wedge!=e''_d''b'=e' | 
[V:2] x4_D2C2- & [D2G,2=B,,2]z2[G,4_B,,4] | 
[V:1] !wedge!f''c''=a'f' !wedge!^f'e'c'^f | 
[V:2] !arpeggio![C2F,2=A,,2]z2!arpeggio![C4E,4_A,,4] | 
[V:1] g'e'c'g ^fdc^F | 
[V:2] !arpeggio![C2E,2G,,2]z2!arpeggio![C4^F,4D,4A,,4] | 
[V:1] G2!wedge![g2d2=B2G2]z4 | 
[V:2] !arpeggio![=B,2D,2G,,2]!wedge![G,,2G,,,2].[G,,2G,,,2].[G,,2G,,,2] | 
[V:1] z8 | 
[V:2] !accent![C,4C,,4].[C,2C,,2].[C,2C,,2] | 
[V:1] z4!accent![=B4A4F4D4] | 
[V:2] (5:4:10[C,C,,]D,,F,,A,,=B,,D,F,A,=B,D | 
[V:1] !accent![c4G4E4]!accent![^e4=A4^F4E4] | 
[V:2] !accent!C2C,2.[C,2C,,2].[C,2C,,2] | 
[V:1] !accent![^f4e4=A4^F4]!accent![=a4e4c4A4] | 
[V:2] (11:8:11[C,C,,]E,,^F,,=A,,C,E,^F,=A,CE^F | 
[V:1] [g2d2=B2]x2!accent![=e'4_d'4g4=e4] | 
[V:2] G2[=B,,2=B,,,2].[_B,,2_B,,,2][_B,2B,,2] | 
[V:1] !accent![f'4c'4f4]!accent![^f'4e'4-c'4-^f4] | 
[V:2] .[=A,2=A,,2][A,,2=A,,,2].[_A,,2_A,,,2][_A,2A,,2] | 
[V:1] !wedge![g'2e'2c'2g2]E4D2 | 
[V:2] x2[C2G,2][=B,4F,4] & .[G,2G,,2]z2[G,,4G,,,4] | 
[V:1] [C2E,2]EC =B,DGF | 
[V:2] [C,2C,,2]E,^F,!wedge![G,2G,,2]=B,2 | 
[V:1] EGec =Bdg=f | 
[V:2] [C2C,2]E^F!accent![G2G,2]=B2[K:clef=treble] | 
[V:1] ege'c' =bd'g'f' | 
[V:2] [c2C2]e^f[g2G2]=b2 | 
[V:1] e'g'e''c'' =b'd''g'f' | 
[V:2] .[c'2c2]e'^f'g'2=b2 | 
[V:1] e'a'd'g' c'f'be' | 
[V:2] .c'c_bB aAgG | 
[V:1] ad'gc' fbea | 
[V:2] fFeE dDcC | 
[V:1] dgcf BeAd | 
[V:2] BB,AA,[K:clef=bass] GG,FF, | 
[V:1] GcF=B Ec[^FC]d | 
[V:2] EE,DD, CC,A,A,, | 
[V:1] [=B2G2=B,2]=B,G, ^F,=A,DC | 
[V:2] [G,,2G,2]=B,,C,[D,2D,,2]^F,2 | 
[V:1] =B,D=BG ^F=Adc | 
[V:2] [G,2G,,2]B,C[D2D,2]^F2[K:clef=treble] | 
[V:1] =Bd=bg ^f=ad'c' | 
[V:2] !wedge![G2G,2]=Bc.[d2D2]^f2 | 
[V:1] =bd'=bg' ^f'=a'd''c'' | 
[V:2] .[g2G2]=bc'[d'2d2]^f'2 | 
[V:1] =b'd''_a'g' f'e'd'c' | 
[V:2] [g'2g2]=f'e' d'c'=b_a | 
[V:1] =bd'_ag fedc | 
[V:2] gGfe dc=BA | 
[V:1] =Bd_AG FEDC | 
[V:2] GG,FE DC=B,A,[K:clef=bass] | 
[V:1] =B,D_A,G, F,E,D,G, | 
[V:2] G,G,,F,E, D,C,=B,,G,, | 
[V:1] E,2[B,E,]A, G,D,[G,D,]F, | 
[V:2] [C,2C,,2]C,2=B,,2=B,,,2 | 
[V:1] E,C,[B,E,]A, G,D,[G,D,]F, | 
[V:2] C,,2C,2=B,,2=B,,,2 | 
[V:1] E,G,[DG,]C B,F,[CF,]B, | 
[V:2] C,,2E,2D,2D,,2 | 
[V:1] A,E,[B,E,]A, G,D,[G,C,]^F, | 
[V:2] C,,2C,2B,,2[=A,,2D,,2] | 
[V:1] !wedge![G,_B,,]B,[FB,]E D=A,[D^F,]C | 
[V:2] [G,,2G,,,2]G,2^F,2D,,2 | 
[V:1] B,G,[FB,]E D=A,[D^F,]C | 
[V:2] G,,2G,2^F,2D,,2 | 
[V:1] B,G,[=AD]G FC[GC]F | 
[V:2] G,,2B,2=A,2=A,,2 | 
[V:1] EB,[FB,]E D=A,D^C | 
[V:2] .G,,2x4G,2 & x2G,2.F,2[E,2=A,,2] | 
[V:1] [D2F,2]z2^G,=A,DF | 
[V:2] [D,2D,,2]z2!accent![F,4D,4]- | 
[V:1] ^CDF=A =EFAd | 
[V:2] [F,4D,4]!accent![=A,4F,4D,4]- | 
[V:1] ^G=Adf ^cdf=a | 
[V:2] [A,2F,2D,2]!accent![D4=A,4F,4D,4]!accent![D2A,2F,2D,2]- | 
[V:1] =ef=ad' ^gad'f' | 
[V:2] [D2A,2F,2D,2]!accent![D2=A,2F,2D,2]!accent![D2A,2F,2D,2]!accent![D2A,2F,2D,2] | 
[V:1] [^f'2d'2=a2^f2]z2!accent![d'4a4f4d4]- | 
[V:2] [D2=A,2^F,2C,2]z2^C,,D,,^F,,=A,, | 
[V:1] [d'4a4f4d4]!accent![d'4=a4^f4d4]- | 
[V:2] ^E,,^F,,=A,,D, ^G,,A,,D,^F, | 
[V:1] [d'2a2f2d2]!accent![d'4=a4^f4d4]!accent![d'2a2f2d2]- | 
[V:2] ^C,D,^F,=A, ^E,^F,=A,D | 
[V:1] [d'2a2f2d2]!accent![d'2=a2^f2d2]!accent![d'2a2f2d2]!accent![d'2a2f2d2] | 
[V:2] ^G,=A,D^F ^CDF=A | 
[V:1] !wedge![d'2g2d2]z2^C,D,G,D | 
[V:2] B2z2[B,,4G,,4D,,4B,,,4]- | 
[V:1] ^F,G,DG ^CDGd | 
[V:2] [B,,4G,,4D,,4B,,,4]!accent![B,4G,4D,4B,,4]- | 
[V:1] ^FGdg ^cdgd' | 
[V:2] [B,2G,2D,2B,,2][B,4G,4D,4B,,4][B,2G,2D,2B,,2]- | 
[V:1] ^fgd'g' ^f'g'=e''d'' | 
[V:2] [B,2G,2D,2B,,2][B,2G,2D,2B,,2][B,2G,2D,2B,,2][B,2G,2D,2B,,2] | 
[V:1] [^c''2g'2=e'2]z2[=a'4g'4e'4=a4]- | 
[V:2] [=A,2G,2=E,2=A,,2]z2^G,,=A,,^C,E, | 
[V:1] [a'4g'4e'4a4][=a'4g'4=e'4=a4]- | 
[V:2] =C,^C,=E,=A, ^D,E,A,^C | 
[V:1] [a'2g'2e'2a2][=a'4g'4=e'4=a4][a'2g'2e'2a2]- | 
[V:2] ^G,=A,^C=E[K:clef=treble] =C^C=E=A | 
[V:1] [a'2g'2e'2a2]!accent![=a'2g'2=e'2=a2]!accent![a'2g'2e'2a2]!accent![a'2g'2e'2a2] | 
[V:2] ^D=E=A^c ^GAc=e | 
[V:1] !wedge![f'2d'2=a2]z2=e'f'b'd'' | 
[V:2] d2z2!accent![d'4-b4-f4d4] | 
[V:1] ^f'g'b'd'' =e'g'c''b' | 
[V:2] [d'4b4-g4-=e4-][c'4b4g4e4] | 
[V:1] f'g'^g'=a' d'_e'=g'b' | 
[V:2] [=a2f2]z2!accent![g4_e4B4G4] | 
[V:1] ^c'd'f'=a' c'=e'a'g' | 
[V:2] [f2=A2]z2!accent![g4=e4=A4] | 
[V:1] d'_e'=e'f' =ab_e'g' | 
[V:2] [f2d2]z2!accent![g4_e4B4G4] | 
[V:1] =bc'e'g' =ac'f'e' | 
[V:2] [g4e4-c4-=A4-][f4e4c4A4] | 
[V:1] bc'^c'd' g=a=c'e' | 
[V:2] [d2B2]z2[c4=A4E4C4] | 
[V:1] gb^c'd' ^f=ad'=c' | 
[V:2] [B4D4][c4=A4D4] | 
[V:1] [b2g2]z2z4 | 
[V:2] !accent![B2G2E2]z2[K:clef=bass][E,2E,,2][E,2E,,2] | 
[V:1] GBde gbd'e' | 
[V:2] [E,2E,,2]z2!accent![B,4G,4-E,4-] | 
[V:1] !accent!g'2g2z4 | 
[V:2] [=B,4G,4E,4][E,2E,,2][E,2E,,2] | 
[V:1] G=Bde g=bd'e' | 
[V:2] [E,2E,,2]z2[=B,4G,4-E,4-] | 
[V:1] !accent!g'2g2z4 | 
[V:2] [C4G,4E,4][E,2E,,2][E,2E,,2] | 
[V:1] Gcde gc'd'e' | 
[V:2] [E,2E,,2]z2[C4G,4-E,4-] | 
[V:1] !accent!g'2g2z4 | 
[V:2] [_D4G,4E,4][E,2E,,2][E,2E,,2] | 
[V:1] GB^c^f g^c'g'^c'' | 
[V:2] [E,2E,,2]z2!arpeggio![G4=A,4E,4] | 
[V:1] !wedge!d'' z DE =EF^FG | 
[V:2] [^F2=A,2D,2]z2[=E4B,4G,4D,4]- | 
[V:1] A=AB=B c^c=e=b | 
[V:2] [E4B,4G,4D,4][=E4B,4G,4D,4-] | 
[V:1] !wedge!=ad_ed =ef^fg | 
[V:2] [D2^F,2D,2]z2[K:clef=treble][=e4B4G4D4]- | 
[V:1] a=ab=b c'^c'=e'=b' | 
[V:2] [e4B4G4D4][=e4B4G4D4] | 
[V:1] =a'd'_e'd' ^c'=e'g'b' | 
[V:2] [d2^F2D2]z2[b4g4d4-] | 
[V:1] =a'd'_e'd' ^c'=e'g'^c'' | 
[V:2] [=a2^f2d2]z2[b4g4d4-] | 
[V:1] d''d'_e'd' ^c'=e'g'b' | 
[V:2] [=a2^f2d2]z2[b4g4d4-] | 
[V:1] =a'd'_e'd' ^c'=e'g'=e'' | 
[V:2] [a2^f2d2]z2[b4g4d4] | 
[V:1] x4=a'3d'' & d''2z2^f'=e'd'2 | 
[V:2] [=a2^f2d2]z2!arpeggio![f2=A2D2]z2 | 
[V:1] x4=a3d' & [=a'^f']=e'd'2^f=ed2 | 
[V:2] z2z !wedge!dz4[K:clef=bass] | 
[V:1] x4=A3d & [=a^f]=ed2^F=ED2 | 
[V:2] [^F2=A,2D,2]z !wedge!Dz4 | 
[V:1] [=A^F]=ED2[=A,^F,]=E,D,2 | 
[V:2] [^F,2=A,,2D,,2]z D,z2z !wedge!D,, | 
[V:1] !accent![B,4G,4D,4B,,4]!accent![G,4E,4C,4] | 
[V:2] [G,,4G,,,4][G,,4C,,4] | 
[V:1] !accent![B,4G,4D,4B,,4][C2G,2C,2][D2G,2] | 
[V:2] [G,,4G,,,4][=A,,2=A,,,2][B,,2B,,,2] | 
[V:1] !accent!E6DC | 
[V:2] G,4^F,4 & z2=A,6 | 
[V:1] B,4!accent!=A,4 | 
[V:2] G,6^F,2 & [E,6E,,6][D,D,,][C,C,,] | 
[V:1] G,4G,2=A,2 | 
[V:2] x4[E,4C,4] & [B,,2B,,,2][G,,2G,,,2][G,,4C,,4] | 
[V:1] [B,4G,4D,4B,,4][C2G,2C,2][D2G,2] | 
[V:2] [G,,4G,,,4][=A,,2=A,,,2][B,,2B,,,2] | 
[V:1] E4[D4B,4-] | 
[V:2] z2=A,2x4 & G,8 | 
[V:1] G4[^F4D4=A,4] | 
[V:2] B,2C2x4 & G,4x4 | 
[V:1] ^F4.F2.F2 & D8 | 
[V:2] [=A,8^F,8D,8D,,8] | 
[V:1] ^F4=E4 | 
[V:2] [^C8=A,8G,8=A,,8=A,,,8] | 
[V:1] .[D4=A,4^F,4].[D4B,4G,4] | 
[V:2] [D,,4-D,,,4][D,4-D,,4] | 
[V:1] D8 | 
[V:2] {/[B,G,]}[=A,2^F,2][G,2=E,2][A,4F,4] & [D,8D,,8] | 
[V:1] [B,4G,4D,4]G,3=A, | 
[V:2] x4[E,4C,4] & G,,G,,,=A,,,B,,, C,,D,,E,,^F,, | 
[V:1] [B,4D,4B,,4][C2C,2][D2B,,2] | 
[V:2] z2G,6 & G,,^F,,G,,G,,, =A,,,=A,,B,,B,,, | 
[V:1] E4D2C2 | 
[V:2] z2=A,6 & G,4^F,4 | 
[V:1] [B,4G,4-]=A,4 | 
[V:2] x4G,2^F,2 & E,,E,D,E, C,=A,,D,C, | 
[V:1] G,2[G,2D,2B,,2]G,3=A, | 
[V:2] x4[E,4C,4] & B,,G,,B,,,G,,, C,,D,,E,,^F,, | 
[V:1] [B,4D,4B,,4][C2C,2][D2B,,2] | 
[V:2] z2G,6 & G,,^F,,G,,G,,, =A,,,=A,,B,,B,,, | 
[V:1] [E4G,4][D4^F,4] | 
[V:2] z2=A,6 & C,,C,=B,,C, D,^C,D,D,, | 
[V:1] G4[=A4C4] & B,2>C2x4 | 
[V:2] G,4^F,4 & E,,E,F,E, D,^C,D,D,, | 
[V:1] [BB,]D!mordent!ED !wedge![B^C]=E!wedge![^cB]E | 
[V:2] [G,G,,]z[B,G,] z [G,G,,]z[B,G,] z | 
[V:1] !wedge![=A^C]=E!wedge![^cA]E [dD]=A[_e_E][dD] & x4D2x2 | 
[V:2] .[G,2G,,2].[A,2G,2].[^F,2^F,,2].[C2=A,2D,2] | 
[V:1] BD!trill!ED !wedge![B^C]=E!wedge![^cB]E & G2x6 | 
[V:2] !wedge![G,2G,,2]!wedge![B,2G,2]!wedge![G,2G,,2]!wedge![B,2G,2] | 
[V:1] !wedge![=A^C]=E!wedge![^cA]E [dD]A[_e_E][dD] & x4D2x2 | 
[V:2] !wedge![G,2G,,2]!wedge![=A,2G,2]!wedge![^F,2^F,,2]!wedge![C2A,2D,2] | 
[V:1] !accent!BDB,G, G^FG2 & G2x2E3D | 
[V:2] x4G,4 & [B,2G,2]z2[C,3C,,3][B,,B,,,] | 
[V:1] G^FG2GFG2 & E2>D2E3D | 
[V:2] G,4G,4 & [C,2C,,2]>[B,,2B,,,2][C,3C,,3][B,,B,,,] | 
[V:1] [G2^C2G,2]!wedge!G2!accent!^c2!accent!=e2 & x2C=E GEGc | 
[V:2] [=A,,2=A,,,2]z2[=A,4=A,,4]- | 
[V:1] g2^c'2=e'2^f'=a' & =e^ceg c'g=c'2 | 
[V:2] [A,6A,,6][D,2D,,2] | 
[V:1] !accent!b'2=a'^f'!accent!g'2=f'd' & g'bc'2d'g_a2 | 
[V:2] [G,,2G,,,2][=A,,2=A,,,2][B,,2B,,,2][=B,,=B,,,][B,,B,,,] | 
[V:1] e'2d'=bc'2_b=a & c'ef2gc e z | 
[V:2] [C,2C,,2][D,2D,,2][E,2E,,2][C,C,,][C,C,,] | 
[V:1] g2^c2d2=B2 & B2BG ^F=A_A=F | 
[V:2] [D,2D,,2]z2[D4D,4]- | 
[V:1] =c2=A2B2A2 & =EG^F_E GD^FC | 
[V:2] [D2D,2].[D,2D,,2].[D,2D,,2].[D,2D,,2] | 
[V:1] G2G^F GFG2 & x2E4-ED | 
[V:2] B,G,G,6 & [G,,2G,,,2]!accent![C,4C,,4]-[C,C,,][B,,B,,,] | 
[V:1] G^FG2GFG2 & E2>D2E3D | 
[V:2] !accent!G,4!accent!G,4 & [C,2C,,2]>[B,,2B,,,2][C,3C,,3][B,,B,,,] | 
[V:1] !wedge![A2=F2D2A,2]A2d2f2 & x2DF AFAd | 
[V:2] [=B,,2=B,,,2]z2[=B,4B,,4]- | 
[V:1] a2d'2f'2d''2 & fdfa d'af'a' | 
[V:2] [B,6B,,6][=B,,2=B,,,2] | 
[V:1] !accent!e''2d''=b'!accent!c''2_b'g' & c''e'f'2g'c'_d'2 | 
[V:2] [C,2C,,2][D,2D,,2][E,2E,,2][=E,2=E,,2] | 
[V:1] !accent!a'2g'=e'f'2_e'c' & f'ab2c'f^f2 | 
[V:2] [F,2F,,2][G,2G,,2][A,2A,,2][=A,2=A,,2] | 
[V:1] _d'2c'=ab2_af & b_de2fB_c2 | 
[V:2] [B,2B,,2][C2C,2][_D2_D,2][=D2=D,2] | 
[V:1] _g2fde2_dB & e_GA2BE_F2 | 
[V:2] [E2E,2][F2F,2][_G2_G,2][=G2=G,2] | 
[V:1] [c2A2]cA_d2_fd & E2E2_F_DA2 | 
[V:2] A,2A,_G, _F,E,_D,_C, | 
[V:1] !wedge!_g2__bg!wedge!_c'2e'c' & __B_G_d2e_cg2 | 
[V:2] __B,,A,,_G,,_F,, E,,_D,,_C,,2 | 
[V:1] =e'2^g'e'=a'2^c''=b' & ^g=e=b2^c'=a e'^e' | 
[V:2] !wedge!=E,,2=ED ^C=B,=A,^G, | 
[V:1] [=a'^f'][^g'=e'][f'^d'][=e'^c'] [d'^b][c'=a][^b^g][d'^f] | 
[V:2] x4z2^G2 & ^F,^G,=A,^^F,G,4 | 
[V:1] [^c'=e] z ^e^c^f2=af & x2^G2=A^Fc2 | 
[V:2] ^C z C=B, =A,^G,^F,=E, | 
[V:1] =b2d'b=e'2^g'e' & d=B^f2^g=eb2 | 
[V:2] D,^C,=B,,=A,, ^G,,^F,,=E,,D,, | 
[V:1] =a'2^c''=b' =a'^g'f'e' & ^c'=a =e'^e' ^f'=e'^d'c' | 
[V:2] ^C,,=B,,,=A,,,^G,,,z2^F,,2 & x4^F,,,4 | 
[V:1] [^d'^b][^c'=a][b^g][a^f] [g=e][af][ge][f^d] | 
[V:2] z2^G,2z2^G2 & ^G,,4G,4 | 
[V:1] [=e^c] z [=fd][_g_e] [_af][_c'_c][bB][af] | 
[V:2] ^C=B,2<!accent!_B,2_E,D,B,, | 
[V:1] [_g2e2][=g=e][af] [bg][_d'_d][c'c][bg] | 
[V:2] E,_D,2<!accent!C,2F,,=E,,C,, | 
[V:1] [a2f2][=a^f][bg] [c'=a][e'e][d'd][c'a] | 
[V:2] F,,_E,,2<D,,2G,,,^F,,,^F,, | 
[V:1] [b2g2][=a2f2][g2=e2][f2d2] | 
[V:2] G,,G,=A,=A B,B^G^G, | 
[V:1] =e4e3=a & ^c=B=A=E cBA2 | 
[V:2] z2^C2z2C2 & =A,4[=E,4=A,,4] | 
[V:1] =b2>^c'2=b3=e' & ^g^f=e2gfe2 | 
[V:2] {/=E,,}=E,2=B,2D2=E2 & =E,8 | 
[V:1] =e'4e'3=a' & ^c'=b=a=e c'ba2 | 
[V:2] z2^C6 & [=E,4=A,,4]z2=A,2 | 
[V:1] =b'2>^c''2b'3x & ^g'^f'=e'2g'f' e'=E | 
[V:2] {/=E,,}=E,2=B,2D2=E=E & =E,8 | 
[V:1] =e4e3=a & =c=B=A=E cBA2 | 
[V:2] [=E,2=A,,2]C2z2=A,2 | 
[V:1] b2>c'2b3g' & =edc2ge c z | 
[V:2] G,2=E2C2B2 & C,8 | 
[V:1] c'4c'3f' & _agfc agf2 | 
[V:2] F,8[K:clef=treble] & z2_A,6 | 
[V:1] e'2>_f'2e'3=d' & _d'be z d'be z | 
[V:2] z2B,6 & !accent!G,8 | 
[V:1] e'2>_f'2e'3=d' & _c'ae z c'ae z | 
[V:2] z2_C6 & A,8 | 
[V:1] e'2>_g'2e'3f' & b_ge z =age z | 
[V:2] z2[B2_G2E2]z2[=A2E2] & B,4_C4 | 
[V:1] d'2f'b'_g'2b'e'' & b2d'2e'bg'2 | 
[V:2] [B2D2B,2]z2[K:clef=bass].E,2.[_G2E2B,2] | 
[V:1] _c''2e'2f'2a'_d'' & a'e' _c'a _d'af'2 | 
[V:2] !wedge!A,,2[A2E2_C2]!wedge!_D,2[F2_D2A,2] | 
[V:1] b'2d'2e'2g'_c'' & _g'_d' b_g _c'ge'2 | 
[V:2] _G,,2[_G2_D2B,2]_C,2[E2_C2_G,2] | 
[V:1] a'2f'2_g'2e'2 & f'_c' c'a =c'_g c'g | 
[V:2] [_A,2_A,,2][A2A,2][=A,2=A,,2][=A2A,2][K:clef=treble] | 
[V:1] x2f x g x be' & [d'b]f dB eB _g x | 
[V:2] !wedge![B2B,2]B_A GFE_D | 
[V:1] _c' x e x f x a_d' & ae _cA _dA f x | 
[V:2] _CB,[K:clef=bass] A,_G, F,E,_D,=C, | 
[V:1] b x d x e xx2 & _g_dB_G _cG [ge]_c' | 
[V:2] B,,A,,_G,,F,, E,,_D,,_C,,B,,, | 
[V:1] !accent![af]_c!accent![fc]A !accent![_g=c]_G!accent![ec]G | 
[V:2] A,,,G,,,A,,,A,, =A,,,^G,,,A,,,=A,, | 
[V:1] !wedge![d2B2F2]B2B3c & x4[_G4E4] | 
[V:2] B,,B,,,C,,D,, E,,F,,_G,,=A,, | 
[V:1] !accent![_d4B4F4_D4][e2B2E2][f2B2-F2] | 
[V:2] B,,=A,,B,,B, CC,_D,_D | 
[V:1] B2x2f3e & [_g4_G4]=A2x F | 
[V:2] E,EDE FF,G,=A, | 
[V:1] [d4B4]c2B2 & F2=EFG4 | 
[V:2] B,_A,G,F, =E,C,=E,,C,, | 
[V:1] A2F2F3G & x4[_D4B,4] | 
[V:2] F,,F,,G,,A,, B,,C,_D,=E, | 
[V:1] [A4A,4][B2B,2][c2F2C2] & C2F4x2 | 
[V:2] F,=E,F,F,, G,,G,A,A,, | 
[V:1] [_d4G4F4_D4]c3B & x4[G2=E2]FG | 
[V:2] B,,B,=A,B, CC,D,=E, | 
[V:1] [A4F4]!accent!G2F2 & C2=B,CD4 | 
[V:2] F,_E,D,C, =B,,G,,=B,,,G,,, | 
[V:1] E2C2!accent!C3D | 
[V:2] x4[A,4F,4] & C,,C,,D,,E,, F,,G,,A,,=B,, | 
[V:1] E2C2!accent!c3d & x4[A4F4] | 
[V:2] [G,2E,2]x6 & C,C,D,E, F,G,A,=B, | 
[V:1] e2d^f gdc=e & [G2E2]c2=B2_B2 | 
[V:2] C2DD, G,GCC, | 
[V:1] fc=B^d =eBA^c & =A2A2^G2=G2 | 
[V:2] F,F=B,=B,, =E,=E=A,=A,, | 
[V:1] d2d2d3=e & [=A2F2]x2!accent![B4G4] | 
[V:2] D,D,,=E,,F,, G,,=A,,B,,^C, | 
[V:1] x4d3=e & [f2=A2F2]d2!accent![B4G4] | 
[V:2] D,D,=E,F, G,=A,B,^C | 
[V:1] !accent!f2=e^g =aed^f & [=A2F2]d2^c2=c2 | 
[V:2] D2=E=E, =A,=ADD, | 
[V:1] gdc=e fc=B^d & =B2_B2=A2A2 | 
[V:2] G,GCC, F,F=B,=B,, | 
[V:1] =e2e2!accent!e3^f & [=B2G2]x2[c4=A4] | 
[V:2] =E,=E,,^F,,G,, =A,,=B,,C,^D, | 
[V:1] g2=e2e3^f & [=B2G2]x2[c4=A4] | 
[V:2] =E,E,^F,G, =A,=B,C^D | 
[V:1] x2g' x f' x d' x & [g2c2G2][g'=e'c']g [f'd'=a]f [d'=bg]d | 
[V:2] x2C,=E, D,F, D,G, & =E2[C,G,,=E,,] x [D,=A,,F,,] x [D,=B,,G,,] x | 
[V:1] =e' x e' x d' x b x & [=e'c'g]=e [e'c'=a]e [d'=bf]d [b^ge]=B | 
[V:2] [G,=E,C,]C [=A,=E,C,]C [=B,F,D,]D [B,^G,E,]=E & C, x C, x D, x E, x | 
[V:1] c' x c' x _b x g x & [c'=a=e]c [c'af]c [_bgd]B [gec]G | 
[V:2] =E=A F,A, G,B, G,C & [=EC=A,] x [F,C,=A,,] x [G,D,_B,,] x [G,=E,C,] x | 
[V:1] _a x a x _g x e x & [_afc]A [af_d]A [_geB]_G [ecG]E | 
[V:2] CF _D,F, E,_G, E,_G, & [C_A,F,] x [_D,A,,F,,] x [E,B,,_G,,] x [E,C,A,,] x | 
[V:1] !wedge![ec=GE] zz2z2G,C | 
[V:2] !wedge![=G,E,C,=G,,] zz2[G,,2G,,,2][G,,2G,,,2] | 
[V:1] EGce g=bc'd' | 
[V:2] [G,,2G,,,2]z2[K:clef=treble]!accent!!arpeggio![G4E4C4G,4] | 
[V:1] e'2^f2z2CE | 
[V:2] !arpeggio![=A2E2C2G,2]z2[K:clef=bass][G,,2G,,,2][G,,2G,,,2] | 
[V:1] ^F=Ace ^f=ac'^f' | 
[V:2] [G,,2G,,,2]z2[K:clef=treble]!accent![=A4E4C4G,4] | 
[V:1] !wedge!g'2[d'=b][g'_b] [c'=a][f'_a] [c'g][e'^f] | 
[V:2] [G2D2=B,2G,2]g=e fd_ec | 
[V:1] g2x6 & [gd]d' [d=B][g_B] [c=A][f_A][cG][e^F] | 
[V:2] =BG,G=E FD_EC[K:clef=bass] & =B2x6 | 
[V:1] [GD]d [D=B,][G_B,] [C=A,][F_A,] [CG,][E^F,] & D2x6 | 
[V:2] =B,2x6 & =B,G,, G,=E, F,D, _E,C, | 
[V:1] [D4G,4][=B,4G,4D,4] | 
[V:2] =B,,G,,,G,,_A,, G,,F,,E,,D,, | 
[V:1] [C2G,2E,2]z2z4 | 
[V:2] C,,2z2.[C,2C,,2].[C,2C,,2] | 
[V:1] (9:8:9z DFA=Bdfa=b | 
[V:2] [C,2C,,2]z2!accent![D4_A,4F,4C,4-] | 
[V:1] !accent!c'2c2z2CE | 
[V:2] [C2G,2E,2C,2]z2.[C,2C,,2].[C,2C,,2] | 
[V:1] (9:8:9^F=Ace^f=ac'e'^f' | 
[V:2] .[C,2C,,2]z2E2D2- & x4[=A,4C,4] | 
[V:1] g'2g2!wedge!=e''_d''b'=e' | 
[V:2] D2z2!arpeggio!_D2C2 & [G,2=B,,2]z2!arpeggio![G,4_B,,4] | 
[V:1] !wedge!f''c''=a'f' !wedge!^f'e'c'^f | 
[V:2] !arpeggio!C2z2x4 & !arpeggio![F,2=A,,2]z2!arpeggio![C4E,4_A,,4] | 
[V:1] g'e'c'g ^fdc^F | 
[V:2] !arpeggio![C2E,2G,,2]z2!arpeggio![C4^F,4D,4A,,4] | 
[V:1] G2[g2d2=B2G2]z4 | 
[V:2] !arpeggio![=B,2D,2G,,2][G,,2G,,,2][G,,2G,,,2][G,,2G,,,2] | 
[V:1] z8 | 
[V:2] [C,4C,,4].[C,2C,,2].[C,2C,,2] | 
[V:1] z4[=B2A2F2D2][B2A2F2] | 
[V:2] (5:4:10.[C,C,,]D,,F,,A,,=B,,D,F,A,=B,D | 
[V:1] [c4G4E4][e4=A4^F4E4] | 
[V:2] C2C,2[C,2C,,2][C,2C,,2] | 
[V:1] [^f4e4=A4^F4][=a4e4c4=A4] | 
[V:2] (11:8:11[C,C,,]E,,^F,,=A,,C,E,^F,=A,CE^F | 
[V:1] [g4d4=B4][=e'4_d'4g4=e4] | 
[V:2] G2[=B,,2=B,,,2][_B,,2_B,,,2][_B,2B,,2] | 
[V:1] [f'4c'4f4][^f'4e'4c'4^f4] | 
[V:2] [=A,2=A,,2][A,,2=A,,,2][_A,,2_A,,,2][_A,2A,,2] | 
[V:1] [g'2e'2c'2g2]!accent!E4D2 | 
[V:2] x2[C2G,2][=B,4F,4] & [G,2G,,2]z2[G,,4G,,,4] | 
[V:1] [C2E,2]EC =B,DGF | 
[V:2] [C,2C,,2]E,^F,[G,2G,,2]=B,2 | 
[V:1] EGec =Bdgf | 
[V:2] [C2C,2][K:clef=treble]E^F[G2G,2]=B2 | 
[V:1] ege'c' =bd'g'f' | 
[V:2] [c2C2]e^f[g2G2]=b2 | 
[V:1] e'g'e''c'' =b'd''g'f' | 
[V:2] [c'2c2]e'^f'[g'2g2]=b2[K:clef=bass] | 
[V:1] e'a'g'd' c'f'e'b | 
[V:2] [K:clef=treble]c'c_Bb aAGg | 
[V:1] ad'c'g fbae | 
[V:2] fFeE dDcC | 
[V:1] dgcf BeAd | 
[V:2] BB,AA,[K:clef=bass] GG,FF, | 
[V:1] GcF=B Ec^Fd & x6[^F2C2] | 
[V:2] E2D2C2_A,2 & EE,DD, CC,_A,_A,, | 
[V:1] [G2=B,2]=B,G, ^F,=A,DC | 
[V:2] [G,2G,,2]G,,=B,, D,D,,D,^F, | 
[V:1] =B,D=BG ^F=Adc | 
[V:2] G,G,,G,=B, DD,D^F[K:clef=treble] | 
[V:1] =Bd=bg ^f=ad'c' | 
[V:2] GG,G=B dDd^f | 
[V:1] =bd'=b'g' ^f'=a'd''c'' | 
[V:2] gGg=b d'dd'^f' | 
[V:1] =b'd''_a'g' f'e'd'c' | 
[V:2] g'g=f'e' d'c'=ba | 
[V:1] =bd'_ag fedc | 
[V:2] gGfe dc=BA | 
[V:1] =Bd_AG FEDC | 
[V:2] GG,FE DC=B,A,[K:clef=bass] | 
[V:1] =B,DA,G, F,E,D,_B, | 
[V:2] G,^F,=F,E, D,C,_B,,_A,, | 
[V:1] E,G, [DG,]C[K:clef=bass]B,2B,A, & x4F,B,,!accent!D,2 | 
[V:2] G,,2E,,2.D,,2.B,,,2 | 
[V:1] G,2DCB,2B,A, & E,B,,G,2A,B,,D,2 | 
[V:2] z2B,,6 & E,,4!wedge!D,,2!wedge!B,,,2 | 
[V:1] G,2B,!accent!_C B,!accent!=C B,!accent!D[K:clef=treble] & E,2G,2A,2A,2 | 
[V:2] z2B,,6 & E,,2z2!wedge!D,,2!wedge!B,,,2 | 
[V:1] B,!accent!EB,!accent!=E B,!accent!FB,!accent!^F & G,2G,2A,2A,2 | 
[V:2] z2B,,6 & E,,2z2!wedge!D,,2!wedge!B,,,2 | 
[V:1] [G2E2B,2G,2]dcB2BA & x2G2FB,D2 | 
[V:2] z2B,4x2 & E,,2z2!wedge!D,2!wedge!B,,2 | 
[V:1] G2dcB2BA & EB,G2AB,D2 | 
[V:2] x2B,4x2 & E,2z2D,2B,,2 | 
[V:1] _G2G!accent!A G!accent!=A G!accent!B & E2E2_F2F2 | 
[V:2] z2!accent!_G,4G,2- & _C,2z2!wedge!_G,,2z2 | 
[V:1] _G!accent!_c G!accent!=c G!accent!_d G!accent!=d & E2E2_F2F2 | 
[V:2] G,2!accent!_G,4!accent!G,2- & _C,2z2!wedge!_G,,2z2 | 
[V:1] _Ge _ga g=a gb & E2e2_f2f2 | 
[V:2] G,2x4_G,,2 & _C,2_G2_G,2x2 | 
[V:1] _g_c' g=c' g_d' g=d' & e2e2_f2f2 | 
[V:2] _C,2_G2_G,2_G,,2 | 
[V:1] _ge' f'e'd'2d'b & e2!accent!=a2bf_a2 | 
[V:2] _C,2_C2B,2[K:clef=treble]B2 | 
[V:1] _d'2e'd'c'2d'2 & g_dg2-gdg2 | 
[V:2] !wedge!E2[K:clef=bass]!wedge!E,2!accent!E,,4 | 
[V:1] c'2_d'c'_c'2c'a & _geg2f_cf2 | 
[V:2] !wedge!A,,2A,2_D2[K:clef=treble]!accent!_d2 | 
[V:1] b2=c'b=a2b2 & _fBf2-fB=e2 | 
[V:2] _G2[K:clef=bass]!wedge!_G,2!accent!_G,,4 | 
[V:1] =a2c''d'' c''=b'_b'a' & f2=a'b' a'^g'=g'f'- | 
[V:2] !wedge!F,,2[F2C2=A,2]!wedge!C,2[F2C2A,2] | 
[V:1] g'=a'g'2-g'!accent!a'2g' & f'2=e'd'c'2b2 | 
[V:2] !accent!C,2.[=E2C2B,2].[E2C2B,2].[E2C2B,2] | 
[V:1] f'2c'd' c'=b_ba & =a2=ab a^g=gf- | 
[V:2] !wedge!F,2[F2C2=A,2]!wedge!C,2[F2C2A,2] | 
[V:1] g=ag2-g!accent!a2g & f2=edc2B2 | 
[V:2] !accent!C,2.[=E2C2B,2].[E2C2B,2].[E2C2B,2] | 
[V:1] f2=ab a^g=gf & =A2f4=ed- | 
[V:2] {/F,,}F,8 & z2=A,6 | 
[V:1] =efe2ded2 & d3c4B- | 
[V:2] !wedge!=A,,2=A,C!wedge!B,,2B,D | 
[V:1] cdcf BcB=e & B3=A4G | 
[V:2] z2[C2A,2F,2]z2[=E2B,2G,2] & C,4^C,4 | 
[V:1] f=Bdf =ece=b & G4[B4G4] | 
[V:2] !accent![=B,4G,4D,4][C4=E,4] | 
[V:1] [=ac]fad' [c'f]ac'g' | 
[V:2] !accent![F4C4=A,4F,4]z4[K:clef=treble] | 
[V:1] [f'_a]d'f'b' [_a'd']f'a'f'' | 
[V:2] !arpeggio![d4_A4F4=B,4]z4 | 
[V:1] [c''=a'][=b'^g'][_b'=g'][a'f'] [g'=e'][f'd'][e'c'][d'b] | 
[V:2] [c=AFC] z[K:clef=bass] C,,F,, =A,,C,F,=A, | 
[V:1] x4gbag & [c'=a][=b^g][_b=g][af]=e4 | 
[V:2] x4[K:clef=treble]c2B2 & C2C6 | 
[V:1] f2z2=EF=Ac | 
[V:2] [=A2F2]z2[K:clef=bass]!accent![F,4C,4=A,,4F,,4]- | 
[V:1] ^G=Acf =Bcf=a | 
[V:2] [F,4C,4A,,4F,,4]!accent![F4C4=A,4F,4]- | 
[V:1] =ef=ac' ^gac'f' | 
[V:2] [F2C2A,2F,2]!accent![F4C4=A,4F,4]!accent![F2C2A,2F,2]- | 
[V:1] =bc'f'=a' =e'f'a'c'' | 
[V:2] [F2C2A,2F,2]!accent![F2C2=A,2F,2]!accent![F2C2A,2F,2]!accent![F2C2A,2F,2] | 
[V:1] f''2z2!accent![c''4_a'4f'4c'4]- | 
[V:2] !wedge![F2C2_A,2F,2]z2=E,,F,,A,,C, | 
[V:1] [c''4a'4f'4c'4]!accent![a'4f'4c'4a4]- | 
[V:2] G,,A,,C,F, =B,,C,F,A, | 
[V:1] [a'2f'2c'2a2]!accent![f'4c'4a4f4][c'2a2f2c2]- | 
[V:2] =E,F,A,C G,A,CF[K:clef=treble] | 
[V:1] [c'2a2f2c2][c'2a2f2c2][c'2a2f2c2][c'2a2f2] | 
[V:2] =B,CFA =EFAc | 
[V:1] [=b2a2f2]z2G_A=Bd | 
[V:2] [d2=B2_A2F2]z2[K:clef=bass]!accent![F,4D,4A,,4F,,4]- | 
[V:1] _B=Bdf ^cdfa | 
[V:2] [F,4D,4A,,4F,,4]!accent![F4D4=B,4A,4F,4]- | 
[V:1] =efa=b gabd' | 
[V:2] [F2D2=B,2A,2F,2]!accent![F4D4=B,4A,4F,4][F2D2B,2A,2F,2]- | 
[V:1] b=bd'f' ^c'd'f'a' | 
[V:2] [F2D2=B,2A,2F,2]!accent![F2D2=B,2A,2F,2]!accent![F2D2B,2A,2F,2]!accent![F2D2B,2A,2F,2] | 
[V:1] g'2z2!accent![g'4f'4d'4=b4g4]- | 
[V:2] !accent![F2D2=B,2G,2]z2^F,,G,,=B,,D, | 
[V:1] [g'4f'4d'4b4g4]!accent![g'4f'4d'4=b4g4]- | 
[V:2] _B,,=B,,D,G, ^C,D,G,=B, | 
[V:1] [g'2f'2d'2b2g2]!accent![g'4f'4d'4=b4g4][g'2f'2d'2b2g2]- | 
[V:2] ^F,G,=B,D _B,=B,DG[K:clef=treble] | 
[V:1] [g'2f'2d'2b2g2]!accent![g'2f'2d'2=b2g2]!accent![g'2f'2d'2b2g2]!accent![g'2f'2d'2b2g2] | 
[V:2] ^CDG=B ^FGBd | 
[V:1] [e'2c'2g2]z2d'e'a'c'' | 
[V:2] c2z2[c'4-a4e4c4] | 
[V:1] =e'f'a'c'' d'f'b'a' | 
[V:2] c'4b4 & [a8f8d8] | 
[V:1] _e'f'^f'g' c'd'=f'a' | 
[V:2] g2z2x4 & e2z2[f4d4A4F4] | 
[V:1] c'e'^f'g' =bd'g'=f' | 
[V:2] [e2G2]z2[f4d4G4] | 
[V:1] c'^c'd'e' g_a_d'f' | 
[V:2] [e2c2]z2[f4-_d4A4F4] | 
[V:1] =ab_d'f' gbe'd' | 
[V:2] f4e4 & [_d8B8G8] | 
[V:1] ab=bc' f_g_b_d' | 
[V:2] c2z2[B4_G4_D4B,4] & A2x6 | 
[V:1] fa=bc' =egc'_b | 
[V:2] [A2C2]z2[B4C4] | 
[V:1] [a2f2]z2z4 | 
[V:2] [A2_D2]z2[K:clef=bass][_D,2_D,,2][D,2D,,2] | 
[V:1] FAc_d fac'_d' | 
[V:2] [_D,2_D,,2]z2[A,4F,4-D,4-] | 
[V:1] !accent!f'2f2z4 | 
[V:2] [=A,4F,4D,4][_D,2_D,,2][D,2D,,2] | 
[V:1] F=Ac_d f=ac'_d' | 
[V:2] [_D,2_D,,2]z2[=A,4F,4-D,4-] | 
[V:1] !accent!f'2f2z4 | 
[V:2] [B,4F,4D,4][_D,2_D,,2][D,2D,,2] | 
[V:1] F=AB_d f=ab_d' | 
[V:2] [_D,2_D,,2]z2[B,4F,4-D,4-] | 
[V:1] !accent!f'2f2z4 | 
[V:2] [_C4F,4D,4][_D,2_D,,2][D,2D,,2] | 
[V:1] z2_cf a_c'f'_d'' | 
[V:2] [_D,2_D,,2]z2!accent![_C4A,4D,4-] | 
[V:1] [b'2_g'2]b2z4 | 
[V:2] [B,2_G,2D,2]z2[_D,2_D,,2][D,2D,,2] | 
[V:1] z2_cf a_c'f'_d'' | 
[V:2] [_D,2_D,,2]z2[_C4A,4D,4-] | 
[V:1] [__b'2_g'2]__b2z4 | 
[V:2] [__B,2_G,2D,2]z2[^C,2^C,,2][C,2C,,2] | 
[V:1] z2=c^f =ac'^f'd'' | 
[V:2] [=D,2=D,,2]z2[C4=A,4D,4-] | 
[V:1] [b'2g'2]b2z4 | 
[V:2] [B,2G,2D,2]z2[D,2D,,2][D,2D,,2] | 
[V:1] z2_dg _d'g'e''_d'' | 
[V:2] [E,2E,,2]z2!accent!!arpeggio![G4_D4B,4E,4] | 
[V:1] c''b'g'c' bgc'b | 
[V:2] !arpeggio![G8C8B,8=E,8] | 
[V:1] x4A4 & gcBG AF3 | 
[V:2] z4[C4-A,4F,4] | 
[V:1] !wedge!G2C^C D=E=EF & =E2x6 | 
[V:2] [C2C,2]z2z4 | 
[V:1] ^FGA=A B=Bd_a | 
[V:2] z4!arpeggio![F4=B,4A,4C,4] | 
[V:1] gc_dc d=de=e | 
[V:2] !arpeggio![=E2C2G,2C,2]z2[K:clef=treble][=B4_A4F4C4]- | 
[V:1] f^fga =ab=b_a' | 
[V:2] [B4A4F4C4][=B4A4F4C4-] | 
[V:1] g'c'_d'c' =b=d'f'a' | 
[V:2] [c2G2=E2C2]z2!accent![a4f4c4-] | 
[V:1] g'c'_d'c' =bd'f'=b' | 
[V:2] [g2=e2c2]z2[a4f4c4-] | 
[V:1] c''c'_d'c' =b=d'f'a' | 
[V:2] [g2=e2c2]z2[a4f4c4-] | 
[V:1] g'c'_d'c' =b=d'f'=b' | 
[V:2] [g2=e2c2]z2[a4f4c4-] | 
[V:1] x4g'3c'' & c''2z2=e'd'c'2 | 
[V:2] [g2=e2c2]z2!arpeggio![e2G2C2]z2 | 
[V:1] g'2x2g3c' & =e'd'c'2=edc2 | 
[V:2] z2z !wedge!cz4[K:clef=bass] | 
[V:1] g2x2G3c & =edc2=EDC2 | 
[V:2] !arpeggio![=E2G,2C,2]z Cz4 | 
[V:1] G2x2[K:clef=bass]G,2x2 & =EDC2=E,D,C,2 | 
[V:2] !arpeggio![=E,2G,,2C,,2]z C,z2z C,, | 
[V:1] A,2F,2F,3G, & [F,2C,2][C,2A,,2]!accent![_D,4B,,4] | 
[V:2] F,,F,,,G,,,A,,, B,,,C,,_D,,=E,, | 
[V:1] A,4B,2C2 & z2F,4F,2 | 
[V:2] F,,=E,,F,,F,,, G,,,G,,A,,A,,, | 
[V:1] _D4C2B,2 & z2G,6 | 
[V:2] B,,,B,,=A,,B,, C,=B,,C,C,, | 
[V:1] A,4G,4 & F,4F,2=E,2 | 
[V:2] _D,,_D,C,D, _B,,G,,C,B,, | 
[V:1] x2F,2!accent!F,3G, & F,2[C,2A,,2][_D,4B,,4] | 
[V:2] _A,,F,,A,,,F,,, B,,,C,,_D,,=E,, | 
[V:1] A,4B,2C2 & z2F,4F,2 | 
[V:2] F,,=E,,F,,F,,, G,,,G,,A,,A,,, | 
[V:1] _D4C2=E2 & z2G,6 | 
[V:2] B,,,B,,=A,,B,, C,=B,,C,C,, | 
[V:1] F4[=E4C4] & A,2>B,2x4 | 
[V:2] _D,,_D,E,D, C,=G,,=E,,D,, | 
[V:1] =E4E2E2 & [C8G,8=E,8] | 
[V:2] C,,=E,,F,,^F,, G,,^G,,=A,,=G,, | 
[V:1] =E4D4 & [=B,8G,8F,8] | 
[V:2] G,,,G,,^F,,G,, A,,=A,,B,,=B,, | 
[V:1] C4C4 & [G,4=E,4][A,4F,4] | 
[V:2] C,=B,,C,_B,, A,,=E,,F,,_D,, | 
[V:1] {/[A,F,]}C8 & [G,2=E,2][F,2D,2][G,4E,4] | 
[V:2] C,,=B,,,C,,_D,, C,,B,,,G,,,A,,, | 
[V:1] x4[K:clef=treble]!accent!F3G & [A,2F,2]z2[_D4B,4] | 
[V:2] F,,,F,,G,,A,, B,,C,_D,=E, | 
[V:1] A4[B2B,2][c2F2] & z2F4x2 | 
[V:2] F,=E,F,F,, G,,G,A,A,, | 
[V:1] _d4c2B2 & z2G4x2 | 
[V:2] B,,B,=A,B, C=B,CC, | 
[V:1] A4G4 & F4-F2=E2 | 
[V:2] _D,_DCD B,G,CB, | 
[V:1] F2F2!accent!F3G & x2[C2A,2][_D4B,4] | 
[V:2] A,F,A,,F,, B,,C,_D,=E, | 
[V:1] A4[B2B,2][c2F2] & z2F4x2 | 
[V:2] F,=E,F,F,, G,,G,A,A,, | 
[V:1] _d4c4 & z2G6 | 
[V:2] B,,B,=A,B, C=B,CC, | 
[V:1] f4g4 & A2>B2B4 | 
[V:2] _D,_DED C=B,CC, | 
[V:1] [aA]c!trill!_dc !wedge![a=B]=d[=ba]!wedge!d | 
[V:2] [F2F,2][K:clef=treble]!wedge![A2F2]!wedge![F2F,2]!wedge![A2F2] | 
[V:1] x4!accent!c'2x2 & !wedge![g=B]d!wedge![=bg]d [c'c]g[_d'_d][c'c] | 
[V:2] [F2F,2][G2F2][K:clef=bass][=E2=E,2]G2 | 
[V:1] !wedge![af]c!trill!_dc !wedge![a=B]=d!wedge![=ba]d | 
[V:2] z2[F2C2A,2]z2[D2=B,2A,2] & F,4F,4 | 
[V:1] x4!accent!c'2x2 & !wedge![g=B]d!wedge![=bg]d [c'c]g[_d'_d][c'c] | 
[V:2] z2[D2=B,2G,2]z2[G2C2] & F,4=E,4 | 
[V:1] x4f=ef2 & [af]cAF2<_d2c | 
[V:2] [F2C2_A,2F,2]z2[B,3B,,3][=A,=A,,] | 
[V:1] f=ef2fef2 & _d2>c2d3c | 
[V:2] [B,2B,,2]>[=A,2=A,,2][B,3B,,3][_A,_A,,] | 
[V:1] x2E2e2e'2 & [e2_d2E2]E[edB] e[e'_d'b] e'[e''_d''b'] | 
[V:2] [G,2G,,2]z2[K:clef=treble][B4E4_D4G,4]- | 
[V:1] [e''_d''b']e' [e'_d'b]e [e_dB]E [E_DB,]E, | 
[V:2] [B4E4D4G,4][K:clef=bass][G,,4G,,,4] | 
[V:1] [E2_C2E,2]z2e=de2 & x2z2_c3B | 
[V:2] [_A,,2_A,,,2]z2[A,3A,,3][G,G,,] | 
[V:1] e=de2ede_f & _c2>B2c3B | 
[V:2] [A,2A,,2]>[G,2G,,2][A,3A,,3][_G,_G,,] | 
[V:1] x2F2f2f'2 & !wedge![f2=A2]F[fec] f[f'e'c'] f'[f''e''c''] | 
[V:2] [F,2F,,2]z2[K:clef=treble][c4F4E4=A,4]- | 
[V:1] [f''e''c'']f' [f'e'c']f [fec]F [FEC]F, | 
[V:2] [c4F4E4A,4][K:clef=bass][=A,,4=A,,,4] | 
[V:1] [_D2B,2]z2B4- & x4[F4D4] | 
[V:2] {/B,,,} B,,=A,,B,,C, _D,C,D,E, | 
[V:1] B4A4 & [F8-C8] | 
[V:2] F,=E,F,G, A,G,F,A, | 
[V:1] G4c4 & F4E4 | 
[V:2] C=B,CD EDEC | 
[V:1] !wedge![=BD]GBd g=bd'g' | 
[V:2] G,8 & z4G,,4 | 
[V:1] [e'2g2]z2c4- & x2z2[G4E4] | 
[V:2] {/C,,} C,=B,,C,D, E,D,E,F, | 
[V:1] c4B4 & [G8-D8] | 
[V:2] G,^F,G,=A, B,A,G,B, | 
[V:1] =A4d4 & G4F4 | 
[V:2] D^CD=E FEFD | 
[V:1] !wedge![^c=E]=Ac=e =a^c'=e'=a' | 
[V:2] =A,8 & z4=A,,4 | 
[V:1] f'2a2b2d'g' & d'=a fd gdb2 | 
[V:2] !wedge!D,2[D2=A,2F,2]!wedge!G,,2[D2B,2G,2] | 
[V:1] e'2g2=a2c'f' & c'g ec fca2 | 
[V:2] !wedge!C,2[E2C2G,2]!wedge!F,,2[E2C2F,2] | 
[V:1] d'2f2g2be' & bf dB eBg2 | 
[V:2] [F,2B,,2][D2B,2F,2]E,,2[E2B,2E,2] | 
[V:1] c'2a2b2g2 & =ae ec =eB eB | 
[V:2] z2C2^C4 & C,6^C,2 | 
[V:1] ^f x A x B x dg & d=A ^FD GD B x | 
[V:2] D,2DC B,=A,G,F, | 
[V:1] e x G x =A x cf & cG EC FC A x | 
[V:2] E,D,C,B,, =A,,G,,F,,2 | 
[V:1] d x F x G x Be & BF DB, EB, G x | 
[V:2] !wedge!B,,,2B,,=A,, G,,F,,E,,D,, | 
[V:1] c x A x B x G x & =AE EC =EB, EB, | 
[V:2] C,,=B,,,C,,C,^C,2^C,,2 | 
[V:1] [^F2D2=A,2][D2A,2^F,2]!accent!D3=E | 
[V:2] x4[B,4G,4] & !wedge!D,,D,,=E,,^F,, G,,=A,,B,,^C, | 
[V:1] [^F2=A,2^F,2]D2d3=e & x4[B4G4] | 
[V:2] D,D,=E,^F, G,=A,B,^C | 
[V:1] !accent!^f2=e^g =aed^f & [=A2^F2]d2^c2=c2 | 
[V:2] D2=E=E, =A,=ADD, | 
[V:1] gdc=e fc=B^d & =B2_B2=A2A2 | 
[V:2] G,GCC, F,F=B,=B,, | 
[V:1] =e2e2!accent!e3^f & [=B2G2]x2[c4=A4] | 
[V:2] !wedge!=E,=E,,^F,,G,, =A,,=B,,C,^D, | 
[V:1] g2=e2!accent!e3^f & [=B2G2]x2[c4=A4] | 
[V:2] =E,E,^F,G, =A,=B,C^D | 
[V:1] g2^f^a =bfe^g & [=B2G2]=e2^d2=d2 | 
[V:2] =E2^F^F,[K:clef=treble] =B,=B=E=E,[K:clef=bass] | 
[V:1] =a=ed^f gdce & ^c2=c2=B2_B2 | 
[V:2] =A,=ADD, G,GCC, | 
[V:1] f2f2f3g & [c2A2]x2[_d4B4] | 
[V:2] F,F,,G,,A,, B,,C,_D,=E, | 
[V:1] a2f2f3g & [c2A2]x2[_d4B4] | 
[V:2] F,F,G,A, B,C_D=E | 
[V:1] a4x4 & _def2a2x _d' | 
[V:2] x4[K:clef=treble]z2A2 & F2z2[F4_D4A,4] | 
[V:1] e'2>f'2e'3a' & c'ba2c'ba2 | 
[V:2] z2A2[K:clef=bass]!wedge!A,,2[K:clef=treble]A2[K:clef=bass] & [_G4E4A,4]x2x2 | 
[V:1] a'2x2a'3_d'' & f'e'_d'a f'e'd'2 | 
[V:2] x2[K:clef=treble]A2z2A2 & _D,2x2[F4_D4A,4] | 
[V:1] e''2>f''2x4 & c''b'a'2[e''c'']b'a'a | 
[V:2] z2A2[K:clef=bass]!wedge!A,,2[K:clef=treble]A2[K:clef=bass] & [_G4E4A,4]x2x2 | 
[V:1] x4a3b & [af]e_dA f=ef2 | 
[V:2] z2A,6 & D,8 | 
[V:1] c'2>_d'2c'3g' & =egc z bgc z | 
[V:2] z2B,6 & C,8 | 
[V:1] [c'a]gfc2<c'2f' & x4agf2 | 
[V:2] z2A,6 & F,8 | 
[V:1] e'2>g'2^f'3c'' & c'ag2e'd'c'2 | 
[V:2] z2E2z2[^F2C2] & G,4A,4 | 
[V:1] !wedge![=b'd']g'd'=b !wedge![g'b]d'bg | 
[V:2] [G2D2=B,2G,2]z2[G,,2G,,,2][G,,2G,,,2] | 
[V:1] !wedge![g'b]^c'bg !wedge![=e'b]c'bg | 
[V:2] (7:4:7[G,,2G,,,2]_B,,2^C,2=E,2G,2B,2^C2 | 
[V:1] !wedge![^f'=a]_e'a^f !wedge![e'a]c'af | 
[V:2] !wedge!=C2[G,,2G,,,2][G,,2G,,,2][G,,2G,,,2] | 
[V:1] !wedge![=f'_a]d'af !wedge![d'a]=baf | 
[V:2] (7:4:7G,,2A,,2=B,,2D,2F,2A,2=B,2 | 
[V:1] [=e'g]^c'g=e [c'g]bge | 
[V:2] _B,2[G,,2G,,,2][G,,2G,,,2][G,,2G,,,2] | 
[V:1] [_e'^f]c'fe [c'f]=afe | 
[V:2] {/G,,,} (3:2:6G,,2 =A,,2 C,2 E,2 ^F,2 =A,2 | 
[V:1] [d'=f]=bfd [bd]fd=B | 
[V:2] !wedge!_A,2z2[G,,2G,,,2][G,,2G,,,2] | 
[V:1] [f=B]dBF [dF]BFD | 
[V:2] !wedge!G,2z2.[G,,2G,,,2].[G,,2G,,,2] | 
[V:1] [c2E2]z2z4 | 
[V:2] !accent![C,4C,,4].[C,2C,,2].[C,2C,,2] | 
[V:1] (9:8:9z DFA=Bdfa=b | 
[V:2] !wedge![C,2C,,2]z2!accent![D4_A,4F,4C,4] | 
[V:1] c'2c2z2C_E | 
[V:2] [C2G,2E,2C,2]z2[C,2C,,2][C,2C,,2] | 
[V:1] (9:8:9^F=Ace^f=ac'e'^f' | 
[V:2] [C,2C,,2]z2E2D2 & x2z2!accent![=A,4C,4] | 
[V:1] !wedge!g'2!wedge!g2=e''_d''b'=e' | 
[V:2] x4_D2C2 & !arpeggio![D2G,2=B,,2]z2!arpeggio![G,4_B,,4] | 
[V:1] f''c''=a'f' ^f'e'c'^f | 
[V:2] !arpeggio![C2F,2=A,,2]z2!arpeggio![C4E,4_A,,4] | 
[V:1] g'e'c'g ^fdc^F | 
[V:2] !arpeggio![C2E,2G,,2]z2!arpeggio![C4^F,4D,4_A,,4] | 
[V:1] !wedge!G2!wedge![g2d2=B2G2]z4 | 
[V:2] [=B,2D,2G,,2][G,,2G,,,2][G,,2G,,,2][G,,2G,,,2] | 
[V:1] z8 | 
[V:2] [C,4C,,4][C,2C,,2][C,2C,,2] | 
[V:1] z4[=B2A2F2D2][B2A2F2] | 
[V:2] (5:4:10[C,C,,]D,,F,,A,,=B,,D,F,A,=B,D | 
[V:1] [c4G4E4][e4=A4^F4E4] | 
[V:2] C2C,2[C,2C,,2][C,2C,,2] | 
[V:1] [^f4e4=A4^F4][f2e2A2F2][f2e2A2F2] | 
[V:2] (9:8:9[C,C,,]E,,^F,,=A,,C,E,^F,=A,C | 
[V:1] !wedge![g2c2G2]G,C A,F,CF | 
[V:2] !wedge!E2G,,C, A,,F,,C,F, | 
[V:1] ECGc AFcf | 
[V:2] E,C,G,C A,F,CF[K:clef=treble] | 
[V:1] ecgc' afc'f' | 
[V:2] ECGc AFcf | 
[V:1] e'c'g'c'' a'f'c''f'' | 
[V:2] ecgc' afc'f' | 
[V:1] [e''c'']g'[c''a']f'' [e''c'']g'[c''a']f'' | 
[V:2] [e'2c'2]!accent![a2f2c2][g2e2c2]!accent![f2c2A2] | 
[V:1] [e''c'']g'[c''a']f'' [e''c'']g'[c''a']f'' | 
[V:2] [e2c2G2]!accent![A2F2C2][G2E2C2][K:clef=bass][F2C2A,2] | 
[V:1] [e''c'']g'[e'c']g a'[d'c']f[dc] | 
[V:2] !accent![E2C2G,2]z2[D4C4F,4] | 
[V:1] x4!accent!=B4 & g[ec]G[EC] z!accent![A2F2][GF] | 
[V:2] [E2C2G,2]z2[G,4G,,4] | 
[V:1] !wedge![c2G2E2]z2!accent![c4A4F4C4] | 
[V:2] [C,C,,]E,,G,,C, A,,F,,C,F, | 
[V:1] !accent![c4G4E4C4]AFcf | 
[V:2] E,C,G,C A,F,CF[K:clef=treble] | 
[V:1] ecgc' afc'f' | 
[V:2] ECGc AFcf | 
[V:1] e'c'g'c'' a'f'c''f'' | 
[V:2] ecgc' afc'f' | 
[V:1] e''2!accent!^f'2!accent!^f2A=A, & c''g' e'=a e=A[A2E2] | 
[V:2] g'2!wedge![c2C2][K:clef=bass]!wedge![C2C,2]!accent![^F,2^F,,2] | 
[V:1] GCE2!accent!DF, B,F, & [G2E2]CG,=B,2G,2 | 
[V:2] [G,2G,,2]z2[G,,4G,,,4] | 
[V:1] !wedge![CE,]D,C,E, G,CEG | 
[V:2] C,,2C,,E,, G,,C,E,G,[K:clef=treble] | 
[V:1] cegc' e'g'c''f'' | 
[V:2] CEGc egc'f' | 
[V:1] e''c''g'e' c'f'e'c' | 
[V:2] e'c'ge cfec | 
[V:1] gecf ecGE | 
[V:2] GECF[K:clef=bass] ECG,E, | 
[V:1] !wedge!C2!wedge![d2=B2G2D2]!wedge![e2c2G2E2]!wedge![g2d2B2G2] | 
[V:2] !wedge!C,2!wedge![G,2G,,2]!wedge![C2C,2]!wedge![G,2G,,2] | 
[V:1] !accent![c'2g2e2c2]z2!wedge![c''2g'2e'2c'2]z2 | 
[V:2] !wedge![C,2C,,2]z2[K:clef=treble]!wedge![c2G2E2C2]z2 | 
[V:1] {/C}!fermata!C8 |]  
[V:2] [K:clef=bass]!fermata![C,8C,,8] |]
